X:401
T:Lady Carmichael
R:Strathspey
C:John Gow
B:The Athole Collection
M:C|
L:1/8
K:C
G|c>de>c AcG2|A/B/c G>e d>^cd>e|c>de>c A>c G2|A/B/c G>e d2c:|
G|c>de>f g<c e2|f>de>c dcAd|c>de>f g<c e2|f>de>c d2c2|c>de>f g<c e>g|
f<a e<g d>cd>e|c>ed>f e>gf>a|g<c f>e d2 c2||

